P2
80 60
65535
7410 7572 7855 7855 8058 8584 9594 9958 10442 11289 12658 15710 23167 31809 39697 39697 39852 40318 41404 41598 41869 42334 42954 43611 44229 45040 45850 46582 46929 47044 47044 46967 46967 47044 47237 46890 45580 42721 37635 29372 25109 24079 24634 22293 18270 17111 17071 17111 16991 19467 27638 35060 38647 38258 38258 38336 38414 38453 38414 38258 38141 38063 38102 37869 37479 36895 36114 35529 33338 31417 29609 20384 18030 15710 13382 13020 11652 10119 8584 7734 
7896 8139 8422 8543 8745 9271 10240 10603 11047 11813 13060 15910 24356 33613 39930 40279 40396 40823 42141 42141 42063 42334 42992 43920 44036 44963 45773 46390 46736 47044 47121 47121 47198 47083 47314 46351 43611 38803 32398 26730 24198 23246 22492 19627 17511 16991 17111 17431 17871 22611 31024 36934 38569 38375 38375 38375 38453 38647 38725 38647 38453 38414 38336 38063 37752 37401 37051 36153 34043 31888 28900 19786 17551 15148 13060 12497 10160 8098 6558 5706 
8139 8543 8786 9028 9473 9917 10805 11289 11611 12417 14226 16431 25465 35333 40667 41172 41404 41714 42450 42218 42373 42721 43302 44422 44615 45464 46043 46467 46659 46890 47083 47198 47160 46967 46890 44422 40745 35919 28663 24713 23802 23167 21578 18230 17271 17111 17311 17990 19308 24475 31966 36817 38180 38336 38414 38492 38608 38842 38919 38919 38764 38569 38453 38219 37986 37635 37206 36349 34591 32515 29176 21379 17711 14667 12296 10644 8300 6842 5666 4690 
8260 8786 9028 9392 9796 10200 11168 11813 12215 12940 14466 17591 26612 36349 41366 41753 41947 42334 43186 42799 43108 43456 43920 44886 44693 45734 46390 46698 46813 46967 47198 47275 47160 46813 46274 41831 37206 33182 26612 23643 23484 23048 21220 18230 17471 17351 17711 18669 20543 24436 30395 35138 37752 38336 38492 38725 38919 39036 38997 39114 38919 38608 38530 38453 38180 37752 37206 36544 35021 33182 30081 23445 18150 14507 11611 9231 7248 6072 5056 3917 
8543 8907 9352 10119 10563 10724 11611 12135 12899 14105 15509 17990 27007 36934 41482 42644 42954 43031 43534 43418 43650 43920 44384 45310 44963 46043 46852 47044 47121 47314 47429 47352 47160 46775 45580 39425 33495 30002 25979 23484 22691 21777 20464 19866 17871 17911 18350 19068 20344 22691 25465 31417 37713 38375 38569 38842 39114 39192 39114 39114 39036 38919 38647 38530 38492 38297 37869 37089 35294 33691 30867 24515 18789 14587 11370 8988 7045 5625 4406 3225 
8543 9028 9594 10038 10603 11087 12054 12739 13663 14868 16190 19627 27993 37401 41908 43418 43804 43688 43650 44036 44113 44229 44654 45734 45966 46929 47390 47429 47544 47429 47544 47390 46929 46929 43882 37323 31574 28151 25505 23326 22691 21975 20742 18869 18390 18629 19068 19467 19627 20384 23564 28979 34864 38530 38608 38764 39036 39386 39192 39153 39153 38997 38725 38647 38141 37830 37518 36739 34200 32476 30159 25149 19667 15148 11370 8665 6558 4772 3633 3103 
8988 9352 9837 10523 11128 11611 12336 13382 14346 15309 16591 21856 30120 38375 43263 43882 44113 44229 44615 44808 45272 45927 46428 46274 46582 47198 47698 47967 48275 47621 47929 48044 47314 46351 42721 36661 32006 29412 26730 24792 23802 22929 21498 19148 18590 19188 19467 19467 19308 19427 21578 25505 30867 36817 38453 38842 39114 39425 39192 39192 39230 39114 38919 38725 38141 38102 37752 36114 33338 32084 30474 26651 21220 15429 11531 9109 6640 5666 4609 3144 
9392 9635 10240 11329 12215 12135 12457 13864 14948 15670 17431 22532 32123 41521 43766 44229 44307 44384 44770 45117 45580 46197 46775 47198 47698 48198 48390 48505 48659 48006 48313 48275 47314 45773 41443 36036 31809 29412 27717 25505 24000 22333 20543 19029 18310 18909 19108 18829 18550 19108 19467 21896 26730 33691 37479 38725 39192 39386 39114 39192 39230 39153 39036 38764 38375 38414 37791 35529 32711 31652 30435 27599 23048 16791 12417 9594 6721 6234 4772 2777 
9392 9796 10563 11571 12336 12457 13261 14065 14868 16230 19627 26335 34473 41753 44075 44500 44924 45194 45310 45619 46428 47237 47775 48121 48467 49043 49197 49043 49005 48429 48582 48313 47237 45117 40046 34747 30592 28112 27480 24753 22849 20185 17791 17871 17471 17591 17871 17471 16791 18310 17631 19029 23127 29648 35412 38063 39114 39230 38958 39230 39114 39114 39036 38997 38764 38414 37362 35255 32319 30985 29727 27638 24911 19148 13904 9877 6923 6031 4243 2369 
9473 10038 10805 11410 12175 13261 13462 14747 15589 16551 20264 28190 36349 42760 44577 45310 45850 46274 46621 46621 47429 48313 48890 49043 49043 49657 49772 49465 49235 48698 48698 48429 47237 44229 38375 32045 28663 27599 25584 22412 20902 18869 17071 16991 16150 16591 16431 15950 15830 17551 17111 17351 19707 25346 33534 37323 38919 39114 38997 39036 39114 39114 39036 39153 39114 38764 37518 35255 32594 31652 30395 27875 24951 19786 14426 10402 7936 6031 4284 2777 
9594 9917 10724 11490 12256 13141 14065 15309 16190 16991 20344 29451 38024 44229 45194 46235 46736 47237 48313 48083 48198 48390 48966 50232 49926 50002 50117 49964 49619 49158 49005 48390 46698 42721 35412 30985 28663 26691 23365 21220 19427 17631 16351 16030 15990 16110 15790 15469 15429 15950 15870 15910 17831 22651 30513 36153 38492 38725 38530 38919 38958 38997 39036 39036 39036 38842 37752 35529 33103 31731 30395 28742 27086 21697 15309 10724 8462 6640 4324 2573 
9513 9958 10966 11652 12336 12819 14988 15790 16391 17711 20623 31770 40163 44924 45657 46312 47083 47660 47929 49005 49197 49465 49964 50462 50539 50386 50309 50117 49427 49350 49197 48275 45773 39930 33730 30081 27914 25663 22333 20105 17950 16591 15910 15549 15028 15108 14587 14587 14948 14346 14065 14507 16110 19507 27480 34982 38063 38180 38336 38569 38764 38842 38919 38958 38919 38842 37713 35412 32829 31809 30592 29057 27480 22333 16110 11450 8543 6721 4609 2818 
9311 10321 11732 11974 12095 13784 15790 16351 16791 18350 22293 34786 42644 46120 46967 47314 47660 48006 48198 49043 49619 50079 50731 51650 51114 50846 50616 50309 49734 49811 49465 48198 45194 38725 32790 29412 26967 24594 22333 19308 16751 15549 15269 15068 13663 13864 13342 13543 14226 13261 12537 13462 14667 16791 24396 33378 36973 37557 38141 38180 38569 38530 38608 38919 38958 38842 37479 34904 32280 31927 30749 28860 27086 22611 17071 12215 8381 6315 4772 3225 
9998 11208 11087 12014 13261 14185 15790 16311 16791 18470 24198 35958 43572 46890 47237 47814 48275 48736 49350 49696 50501 50884 51305 52376 51573 51229 50884 50539 50271 50232 49734 48006 44615 38375 32280 28506 25782 23802 22571 18909 15870 14466 14266 14185 12658 13060 13020 12899 13020 12658 12417 13060 14185 16190 20464 30120 34864 36427 37167 38180 38530 38453 38492 38725 39036 38919 37401 34943 32907 31849 30395 29136 28585 24238 18310 12779 8219 5787 4650 3429 
10281 10603 11329 12135 13221 14547 15750 16711 17551 19308 25386 36934 44229 47314 47429 48198 48736 49350 50271 50577 51420 51879 52070 52720 52262 51650 51229 50884 50654 50309 49964 47852 43263 35607 31181 25900 23960 23445 21260 17990 15389 14266 14105 13985 12618 12497 12376 12215 12054 12014 12215 12899 13543 14185 15630 26177 32790 35958 36973 37362 37635 38024 38297 38453 38764 38180 37051 35529 33221 31731 30395 29254 28388 25149 18869 13141 9028 7855 5625 3673 
10240 10644 11450 12336 13342 14667 15469 16711 18070 20225 26177 37713 44808 47429 47967 48736 49043 49427 50041 50846 51573 52606 53561 53675 53561 52529 51803 51420 50846 50309 49964 47583 42567 34943 29963 25821 23564 22412 20941 16991 14466 13583 13663 13462 12578 12054 11772 11813 11893 11692 11732 11893 12095 12537 14105 21896 29254 34552 36544 36349 37284 37518 37791 38219 38180 37752 36700 34825 31849 30828 30159 29451 28348 25426 18869 13342 9635 9028 6518 4324 
10240 11007 11329 12537 13904 14627 14988 15990 17431 19906 27165 37791 44577 47583 48390 48890 49427 50079 50961 52644 53064 53561 54286 54934 54896 53942 52682 51764 51650 50731 50424 47890 42218 33260 28860 24792 22412 21180 19746 16030 13744 13020 12940 12739 12175 11732 11370 11450 11571 11370 11370 11289 11249 11652 13020 17950 26177 33103 35763 35568 36778 36895 37128 37479 37479 36895 35802 34043 31260 30670 30120 29609 28821 25307 18789 13944 10805 10119 7450 5219 
10523 10482 11208 12175 13462 15028 16190 16991 17631 19507 26651 37401 44770 48390 49158 49504 50002 50884 52376 53637 54515 54934 55239 55810 56077 55582 54515 53408 52835 51688 50922 47814 41249 30906 27757 23841 21538 20025 18070 14587 13141 12698 12578 12215 11772 11410 11087 11007 11087 11087 11087 11208 11249 11329 11772 14988 23643 31378 34943 35216 35763 36153 36153 36231 36700 35412 34591 33573 31888 31417 30277 29805 29530 25069 18949 15068 12698 11329 8503 6558 
10603 10765 11531 12457 13342 14065 15950 17791 18869 20185 26730 36778 44307 48659 49542 50999 51573 51994 53370 55048 55924 56267 56533 56989 57445 57255 56723 55886 54629 53332 51650 47583 40279 28782 26651 23524 21339 19308 16551 12819 12739 12819 12658 12175 11611 11168 10603 10603 10724 10926 10886 11047 11087 11249 11692 13462 19427 27954 34630 34864 35177 35021 35021 34982 34943 34786 33534 32123 31260 31142 30670 30395 29372 24832 19228 16551 14747 12899 9837 8017 
10805 11208 11531 12417 13382 13784 15148 17111 18749 20543 25940 35802 43882 49120 50807 52644 53217 53408 54286 56761 57141 57559 58243 58736 58774 58774 58584 58167 57179 55429 52797 48083 40318 28112 26138 23524 21618 19707 16951 13060 12698 12376 12175 11853 11249 11087 10805 10765 10966 11047 10886 11329 11893 12336 12779 13583 18070 24792 31260 34630 34864 34747 34708 34786 34825 34786 33456 32202 31770 31417 30670 30159 29057 24634 18869 16271 14747 13462 11692 9109 
10684 11168 11289 12175 13261 13663 14948 16271 17990 20384 23762 34043 43224 49964 53484 53713 54057 54705 55924 57863 58091 58584 59532 60063 59191 59153 58660 57939 57559 56913 54095 47814 38725 28269 28466 24515 21777 20424 18350 12859 12940 12698 12336 11893 11450 11128 10684 10765 11007 11128 10926 11652 12417 13060 13462 13543 16271 22492 29805 34630 34904 34825 34708 34669 34864 34982 33847 32711 32123 32006 31220 30592 28860 23603 18629 16271 14908 13985 12739 10160 
10160 10563 11128 11853 12537 13020 16271 17591 18669 20304 20344 30081 40551 49350 53790 53981 55429 56837 57635 58660 59722 60214 60252 60214 59608 59381 58698 58053 57939 57103 54057 47544 38803 30592 29451 26098 23564 20941 17511 12779 13060 13060 12658 12135 11410 11329 10805 10926 11087 11047 11087 12014 12899 13462 13663 14386 15269 21339 29530 34708 35021 34864 34825 34943 35294 35451 34904 33965 33025 33103 31927 30867 28466 22412 18550 16511 15189 14266 12819 10684 
10119 10160 11329 12135 12859 13703 16391 17351 18230 19746 20264 27441 38530 49504 54477 55772 57103 58660 60100 60593 61009 61009 60820 60668 59987 59684 59646 59343 58508 57445 54210 47390 39230 33299 31260 27638 24951 21220 16671 13261 13462 13543 13342 12497 11289 11410 11128 11128 11128 11047 11208 12296 13141 13543 13543 15509 15630 21538 29923 34864 35099 34943 35138 35646 36349 36427 36622 36114 34943 34904 32515 30277 27283 21498 18390 16671 15269 13944 12215 10644 
10281 10119 11168 12175 13141 13985 15509 16591 17671 19068 20384 25149 35021 46736 55163 57103 59002 60593 61803 61916 61840 61652 61463 61311 60782 60403 60668 60593 59494 58053 54667 48198 40667 35490 34082 29057 25584 21379 16751 14386 14426 14547 14105 12899 11490 11450 11370 11249 11249 11410 11370 12417 12819 12859 13060 14306 17071 23246 30356 35099 35138 35763 36153 36817 37908 38336 38492 37986 37051 36309 33103 28939 23881 18430 17911 16311 15148 14547 13543 12175 
10240 10160 11007 11893 12899 14065 14828 16190 17431 18550 20384 23802 31181 41792 54210 57483 60252 62067 62332 62218 62445 62369 62143 61954 62067 61614 61311 61160 60782 58698 55201 50731 44693 36973 36700 31417 26651 21140 16391 15429 16591 15830 14868 13985 12819 12135 11571 11450 11450 11571 12054 12739 12899 13020 13462 14426 17831 25426 32202 34708 36075 35958 36153 36934 38375 39308 39580 39153 38336 37830 33652 27717 21816 17631 16911 15750 15028 14707 13904 12256 
10119 10281 10805 11652 12698 13985 14466 15990 17311 18110 20145 23167 27757 35763 49964 56533 60366 62029 62143 62634 62596 62520 62558 62671 63124 62634 62634 62256 61009 59002 55429 50616 45233 40163 36661 31535 26533 20822 16351 16150 17511 17591 16591 15108 13824 12578 11813 11531 11732 12215 12457 12537 12819 13141 13543 15028 19348 27204 33221 34630 35412 35724 36309 37128 38180 38725 39036 38842 38219 37323 33456 26177 19467 16711 16271 15549 15229 15189 14346 12497 
9958 10442 10805 11974 13221 14065 14185 14988 16150 17671 19906 20941 23127 29333 42954 54858 60517 62822 63388 63765 63614 63652 63765 63916 64519 63690 63577 63388 62407 59722 56761 51650 45966 41598 37947 32359 26098 20344 16991 17471 18550 18829 18350 16911 14868 13824 12296 11934 12336 12739 12578 12578 12779 13141 13784 15710 21816 28821 33260 34239 34552 35412 36231 36934 37557 37947 38219 37947 37167 35802 32829 24634 17391 15870 16150 15589 15429 15469 14747 13020 
9917 10563 10765 11732 12739 13382 14386 15429 16511 17631 19348 20065 22492 27244 35294 49504 58508 63086 64217 64632 64594 64820 65084 65234 65535 64782 64142 63426 62180 59835 57065 52453 47583 43766 39930 34434 26414 20623 18510 18909 19627 19627 19627 18550 15910 15028 13141 12899 13141 13261 12859 13141 13060 13141 14025 16751 24555 30199 32829 33652 34278 35060 35568 36036 36583 38063 38024 37128 35802 34630 32241 23643 16591 16110 16150 15630 15068 14547 14145 13462 
9917 10442 10724 11410 12135 12779 13543 14547 15509 16671 18669 19108 20941 23960 28112 42992 54705 62105 64933 65385 65008 64632 64594 65159 65535 65121 64217 63049 61538 59873 56989 52873 49043 46274 42257 36583 26928 21379 20464 20543 20623 20264 20264 19427 16711 15108 14426 14226 13985 13663 13824 13985 13864 13543 14226 19467 26019 30670 32790 33417 34082 34825 35177 35099 35060 36622 36466 35490 34161 33182 29254 21697 16230 15670 15469 15429 15068 14507 13904 13261 
9675 10119 10644 10805 11289 12457 12819 13824 14667 15549 17111 18030 19148 20702 22849 36153 49389 59532 65196 65535 64782 62483 62105 63954 64594 64594 63765 62709 61614 60138 57635 53141 49427 47621 44770 36856 26414 21657 21777 22214 22015 21538 20941 19348 16511 15108 15990 15148 14426 14226 14507 14627 14346 14226 15509 20543 26177 30592 32594 32986 33769 33769 34121 34356 34552 34825 34708 33965 33103 32672 27559 20503 15910 15349 15068 15148 14908 14426 13703 13060 
9311 9715 10361 10281 10603 12296 12859 13944 14667 14948 14948 16911 18390 19427 20384 28860 42644 55505 64293 65422 63577 58926 59343 64820 64858 64293 63049 62067 61311 60063 57863 53294 49619 48198 45657 37128 26967 23008 23524 23762 22532 22015 21180 19108 16511 17631 17671 16591 15790 15469 15389 15108 14747 14747 15990 20264 26098 30553 32594 33103 33534 33495 33652 33887 34082 33573 33417 32986 32359 32202 27125 19946 15429 14747 14547 14507 14426 14185 13543 13141 
9392 9513 9837 10160 10644 11772 13060 13583 14065 14426 14707 15750 17511 18510 18310 22015 36856 52185 63124 65460 64971 64293 64330 64858 64632 63539 62558 62029 61652 60668 58319 53179 49350 48198 45811 39775 28545 23960 24277 24396 23326 21856 20264 19029 18590 18789 18150 17351 16871 16511 16190 15710 15509 15389 16311 19946 25900 30553 32711 33025 33338 33417 33417 33534 33573 32986 32672 32280 31888 31849 27204 19786 14988 14185 13864 13703 13824 13864 13462 13342 
9190 9392 9594 9958 10482 11087 12698 12859 13141 13904 14547 14948 16511 17990 18470 20543 31142 45503 59532 65535 65347 65196 65196 65121 64707 63313 62483 62029 61274 59229 57559 53446 50041 48582 47121 41792 31770 25900 24436 24515 23603 22015 20583 20185 20623 19866 18989 17871 17471 17311 16751 16271 16190 15950 16711 20065 25782 30631 32711 32829 33182 33221 33299 33338 33221 32829 32398 31927 31652 31888 26928 19308 14547 13784 13543 13261 13342 13703 13543 13141 
8988 9271 9352 9594 9958 10724 11450 12014 12859 13784 14346 15028 16190 17311 18110 19308 26533 39347 54705 64895 65159 65234 65159 64933 64481 62822 62256 61916 60895 57673 56913 53675 50692 49197 48467 42644 35138 27757 24079 24238 23127 22015 21975 22015 21657 21220 20583 18949 18470 18310 17391 16751 16431 16110 16871 20065 25703 30828 32907 32907 33221 33338 33378 33456 33417 32790 32476 32045 31849 32045 27046 18629 13342 12417 12537 12578 13020 13462 13261 12940 
8665 8786 9271 9392 9635 10240 10765 11813 12698 13342 13784 14988 15830 16351 16791 18110 22730 33808 49158 62558 64481 64895 64820 64406 63577 62332 61992 61689 60441 57293 56571 53904 51343 49887 49197 43456 37635 29530 24238 23683 22571 22333 23603 23841 22333 22095 21896 20862 20185 19667 18829 16871 16551 16230 16671 19308 25307 30749 33025 33182 33221 33613 33769 33847 33887 33573 32672 32006 31849 31966 27204 18709 13060 11772 12014 12014 12135 12336 12457 12578 
8300 8503 9109 9311 9473 9917 10482 11490 12175 12578 13221 14185 15068 15469 15670 17111 19866 29018 43147 58357 63275 64180 64180 63652 62369 62180 61992 61387 60290 58243 56381 54438 52568 50807 49542 45542 40241 32790 26493 23127 22571 25346 26454 25505 23881 23722 22730 21618 20464 19427 18590 16951 16871 16591 16911 18789 24753 30513 32986 33338 33691 34004 33965 34043 34082 33847 33103 32476 32162 32319 27323 18629 12779 11208 11410 11329 11531 11772 11934 12014 
7977 8503 8745 9069 9473 9796 10119 10563 11087 11934 12940 12819 13583 14828 15990 16110 18030 24792 36466 52606 61538 63275 63086 62671 62294 62067 61954 61803 61387 60517 56723 54820 52568 50271 49389 45542 41947 36466 29254 22571 22611 25861 27007 26849 25821 24594 24238 23008 21697 20782 20264 18989 17551 16871 17351 19427 24356 30513 33103 33378 33847 34161 34121 34121 34121 34043 33182 32672 32594 32711 27480 18629 12618 10805 11007 10926 11087 11370 11611 11611 
7531 7936 7977 8381 8745 9109 9675 9958 10402 11249 12336 12296 12578 13382 14667 15710 18030 21777 30081 47814 58395 61803 62558 62483 62332 62105 61954 61840 61387 60138 57559 54934 52873 51190 49312 45850 43572 38063 30238 22929 22134 26098 27204 27046 26533 25940 25544 23762 22333 21498 21061 20185 18430 17511 17990 19866 23841 30356 33338 33652 34043 34200 34161 34121 34121 34161 33299 32711 32790 33103 27599 18789 12618 10482 10684 10724 10644 10765 11410 11370 
7450 7774 7896 8341 8867 9271 9715 9917 10361 10805 11410 12014 12135 13060 14667 15309 16271 18669 25346 40163 53370 59570 62067 62483 62105 62029 62105 61954 61387 60063 57559 55048 53026 51497 49926 47198 44770 38725 30710 23564 21856 24634 26454 27046 26809 26809 26217 23841 22571 21896 21379 20742 19627 18829 18869 20225 23524 30199 33534 34200 34356 34161 34082 34121 34121 34161 34043 33182 32907 33573 27638 18789 12578 9917 9271 9594 9877 10119 10038 10160 
7207 7410 7653 8260 8786 9271 9675 9796 10200 10563 10886 11571 11692 12457 13663 14185 14908 17191 22532 33103 48698 57293 61311 62407 62105 62180 62407 62180 61500 60176 57407 54820 52873 51573 50654 48429 45310 38764 31063 24634 23167 22651 24990 26335 25979 25544 24277 22174 21618 21697 21697 21538 20742 20344 20543 21498 24039 30317 33691 34356 34239 34121 34121 34121 33965 33926 34004 33417 33025 33221 28151 18510 11853 9473 9392 8907 8867 9069 9473 9715 
6923 7045 7450 8017 8422 8786 9150 9352 9877 10361 10603 11087 11289 11611 12054 12779 14226 16591 20503 27283 43804 54286 60100 62294 62256 62596 62709 62445 61689 60328 57635 54171 52415 51803 50999 48390 45001 38375 31338 26454 27165 23246 23524 23722 22134 19547 14787 14988 15509 17591 20902 21299 20464 20464 20941 21459 23881 29884 33926 35099 34356 34161 34161 34043 33926 33926 33887 33378 32986 32790 27638 17071 10361 8462 8219 7815 7977 8219 8462 8826 
6721 6923 7491 7734 7774 7815 8058 8867 9594 9958 10160 10603 10805 11047 11450 12296 13020 14667 17231 21538 35958 48736 58091 62369 62483 62973 62936 62671 61954 60403 57673 54133 52338 51879 51382 50117 45619 38414 31220 26493 27283 24990 21220 18989 17871 15429 12899 9917 10038 11652 14426 19308 20344 20822 21379 22174 24039 30081 34786 36895 36661 34904 34356 34043 33847 33887 33730 33417 32986 32476 27165 16110 9150 7329 7045 6721 7126 7450 7369 7734 
6477 6680 7045 7248 7450 7612 7734 8826 9271 9392 9635 10119 10160 10321 10765 11772 12859 14185 16551 21061 31456 45040 55696 61274 62520 62860 63049 62483 61652 60441 58508 54934 52873 51803 50922 49235 45542 39697 32319 26612 26730 24990 20264 15790 13261 12014 10603 8341 7612 8139 10240 15710 18550 20105 21260 22929 24436 30199 35451 38453 38492 35372 34552 34121 33926 33847 33691 33495 33260 32594 27046 16271 8907 6477 7045 6315 6274 6640 7126 7450 
6274 6518 6721 7004 7248 7369 7491 8139 8584 9028 9392 9675 9837 9998 10361 11249 12014 13060 15269 19068 24396 38414 51152 59077 61992 62747 62671 62294 61538 60441 58888 56191 53446 51573 50769 48275 45503 40202 32790 26493 25861 23960 19946 14587 10563 9594 8543 7896 7126 7126 8665 12336 15389 17950 20384 23127 24713 30002 35177 38180 37752 34434 34200 34043 33926 33808 33730 33338 33338 33338 26335 15549 8543 6234 6356 5787 5747 6072 6640 6883 
6072 6396 6477 6842 6923 7045 7248 7531 7977 8543 9028 9311 9594 9796 10038 10402 11289 12014 13864 16951 19427 32123 45811 55353 60138 62596 62369 62256 61803 60895 59760 57027 53752 51497 50692 47467 45619 41094 33456 26335 24555 22651 19427 14426 9877 8179 7369 7248 7207 7693 8705 10523 11732 14747 18590 22134 24436 29451 32162 33103 32986 30513 30356 30435 30670 31260 32790 33103 32790 32006 26335 15389 8058 5666 5787 5381 5219 5341 5950 6437 
5828 6153 6356 6518 6640 6842 7126 7207 7572 7936 8381 8988 9231 9513 9635 9594 10603 11208 12658 15189 17591 26928 40202 50807 57331 62143 62218 62445 62294 61765 61311 57065 53713 51573 50117 46852 45773 43572 35685 26691 22849 21618 17831 13261 9675 7977 6842 6274 6234 6558 7248 7774 9311 11410 14948 20025 23484 25742 26809 27165 27046 25782 25386 25149 25188 25663 27954 30002 31142 30828 24436 14065 7207 5016 5300 4894 4772 4894 5259 5950 
5463 5706 6112 6112 6477 6802 6883 6721 7004 7126 7612 8543 8826 8988 9190 9473 9352 10724 12054 13462 16190 21379 34904 47198 55429 61198 61727 62332 62294 61803 61954 57445 53828 51497 49964 47044 46544 44229 37518 29372 23643 20941 17791 13543 9998 8341 6315 5341 5056 5138 5544 6842 8139 9392 11813 15830 19547 20981 21657 21896 21896 21816 21180 21021 21140 21339 22571 25188 27875 29333 22810 12537 6234 4690 4934 4243 4446 4812 4731 5300 
5259 5463 5544 5463 6031 6437 6680 6721 6680 6802 7369 8422 8665 8745 8867 9028 8988 9635 10442 11813 15108 19507 28782 40202 50386 57673 60214 60895 60895 60630 60971 56913 53370 51229 50347 48275 47852 45966 38919 30788 25861 21260 17591 13342 9837 7855 5666 5056 4853 4650 4650 5706 6721 7248 8422 11128 15028 16591 17191 17231 16991 17391 17191 17591 18150 18390 18190 19866 23048 26928 22254 11893 5787 5056 4487 4080 4162 4406 4365 5016 
4934 5056 5178 5463 5869 6112 6274 6680 6153 6437 7045 7612 8058 8179 8422 8665 9069 9231 9513 10603 13703 17551 23246 34200 45850 54438 58546 60063 60290 59646 58471 55353 52720 51229 50692 49389 49197 48198 41714 33534 27283 22174 19188 15229 11249 8179 5300 4934 4934 4731 4365 4853 5381 5381 5787 7369 11007 13020 13663 13342 12376 12054 13020 13703 14145 14547 15349 16190 17631 19667 14908 8745 5300 4650 4080 3877 3755 3755 3958 4284 
4650 4731 4894 5503 5666 5747 5828 6396 5706 6234 6477 6437 7004 7248 7774 8381 8988 8988 9109 9877 12054 15750 19308 28821 40124 49657 55429 58281 59115 58281 56153 53484 51879 51229 50961 50002 50041 49926 45001 36778 27717 23326 21856 18669 14466 10281 5828 4894 4853 4812 4650 4812 5138 5219 5503 6274 7126 9594 10805 11128 10926 10321 10442 10644 11007 11450 12497 12417 12497 13141 10805 7126 4934 4365 3836 3673 3551 3429 3470 3673 
4568 4650 4731 4934 5056 5259 5544 5828 5544 5869 5828 5341 5503 6112 7004 7896 8584 8665 8907 9473 10603 14547 17111 23643 32790 42876 50769 55125 56647 56229 55048 52070 51114 51075 51037 50117 50309 50271 46505 38492 27993 24555 22571 20702 18030 14105 9473 5544 4934 4894 4812 5138 5178 5341 5666 5909 6153 7207 8017 8503 8907 8745 8665 8907 9271 9513 10523 10523 10402 10523 8745 6274 4609 3958 3633 3551 3307 3144 3144 3225 
4365 4568 4609 4772 4609 4690 4934 5016 5219 5056 4894 4894 5138 6031 6315 6437 7410 7815 8098 8503 9594 13141 14547 18270 26058 37323 47390 52873 54438 53713 52491 51343 51114 51075 50999 50769 50577 50462 46544 39813 31378 24198 21936 20503 18989 16591 11893 6234 5138 4934 4812 5056 5016 5016 5178 5381 5706 6396 6842 7248 7774 8058 8017 8300 8584 8665 9513 9796 10119 10563 8058 5828 4365 3551 3225 3144 2899 2736 2736 2736 
4202 4406 4528 4650 4528 4609 4772 4975 5259 5056 5016 5219 5625 5950 6234 6558 7126 7531 7734 8058 9069 11531 13221 15950 21498 30513 42915 50117 53064 53255 52453 51343 51152 51190 51152 50807 50846 50807 47314 41055 33221 25188 21896 20105 19188 17911 14747 9069 6112 4934 4690 4853 4772 4690 4731 5138 5544 6234 6721 7004 7410 7977 8098 8422 8705 8665 9594 9796 9837 10281 8503 5747 3999 3470 3022 2899 2818 2655 2614 2369 
3999 4202 4324 4406 4487 4609 4772 4975 5056 4934 5097 5341 5544 5666 6072 6437 6640 7004 7369 7774 8503 9675 12336 14828 18550 24990 36661 46813 51382 52606 52568 51267 51114 51229 51190 50922 50999 51152 48198 42915 35685 26651 22055 19627 18709 18190 16791 11813 7369 5056 4568 4609 4650 4487 4609 5016 5544 6112 6721 7045 7248 7612 7855 8462 9069 9392 9473 9715 9917 10038 8948 6031 3999 3470 3144 2736 2451 2247 2369 1920 
3755 3958 4040 4040 4284 4446 4650 4772 4609 4690 4934 5138 5138 5381 5747 6072 6031 6396 7004 7531 7936 8422 11571 13784 16190 20742 29963 42218 49005 51956 52529 51114 51114 51267 51229 51114 51075 51382 49158 45426 39697 28821 22571 19029 17671 17311 16431 12175 8017 5381 4406 4406 4324 4202 4162 4365 5544 6356 6680 6842 7207 7491 8219 8584 8826 9150 8948 9069 9352 9837 7936 5381 3633 3225 3307 2532 2125 1880 1757 1431 
3470 3673 3673 3551 3836 4202 4406 4406 4528 4528 4690 4853 4975 5259 5625 5828 5909 6356 6640 7045 7815 8826 10200 11652 13784 17551 24515 35412 45657 51764 52338 51305 51343 51497 51573 51573 51075 51229 50232 48275 44229 34786 25742 20065 17111 15189 13141 11974 8948 6396 4934 4690 4243 4121 4284 4568 5463 6112 6437 6721 7045 7369 8017 8300 8341 8665 8503 8624 8988 9635 6721 4650 3429 2981 3022 2206 1920 1757 736 777 
3429 3307 3144 3144 3429 3958 4202 4243 4080 4243 4528 4772 4934 5300 5300 5259 5422 5828 6153 6842 7734 8058 8422 10321 12698 15990 20862 30828 41482 48966 51764 51075 51152 51420 51573 51343 51420 51688 51114 50232 48198 42373 32359 24436 19108 15589 12940 11732 9352 7207 5584 4975 4934 6031 6234 5056 5422 5828 6234 6640 7045 7248 7734 7977 8017 8139 8179 8422 8826 9271 6356 4731 3877 3103 2288 1553 1267 1145 368 409 
3144 2899 2859 2940 3347 3551 3836 4121 3917 3958 4202 4406 4568 4731 4772 4934 5138 5503 5584 6234 7004 7369 8341 9998 12135 14587 17631 26138 36231 45117 50846 50539 50922 51190 51305 51305 51650 51764 51650 51497 50692 47467 37869 29963 23683 18390 13864 11370 10361 9311 8462 8139 8745 10361 9837 6396 5544 5625 6031 6518 7004 7248 7491 7815 8058 7815 8098 7936 7774 7896 5909 4243 3103 2410 1839 1022 573 450 41 205 
2736 2614 2655 2777 3103 2940 3307 3795 3795 3633 3755 3917 4121 4080 4446 4690 4812 5056 5138 5544 6153 6842 8381 9715 11732 13864 15790 21777 31063 41482 49964 49696 50156 50501 50692 50884 51573 51764 51879 52070 51803 50002 42528 35841 29766 23127 16030 11813 12014 12618 13342 14627 16431 16791 14587 9594 5869 5828 6234 6558 6923 7126 7572 7734 7653 7207 7369 7126 6883 7248 5544 4162 3022 2165 1553 777 286 0 0 0 
2369 2084 2288 2369 2002 2410 2655 2859 3144 3307 3347 3551 3958 3917 4324 4487 4446 4650 4731 5016 5544 6477 7693 8907 11289 13663 15309 18310 26493 38141 48582 48621 48813 49312 49580 49696 51114 51764 51764 51956 51879 50577 47083 41443 35607 29451 21936 14868 13462 13342 14426 17471 17671 17111 14547 9796 6153 5909 6396 6842 7045 7126 7491 7491 7369 7045 7045 6518 6072 6396 4894 3917 3103 2125 1308 818 368 41 0 0 
